public/icons/bootstrap.svg

<?xml version="1.0" encoding="UTF-8" standalone="no" ?>
<!DOCTYPE svg PUBLIC "-//W3C//DTD SVG 1.1//EN" "http://www.w3.org/Graphics/SVG/1.1/DTD/svg11.dtd">
<svg xmlns="http://www.w3.org/2000/svg" xmlns:xlink="http://www.w3.org/1999/xlink" version="1.1" width="1080" height="1080" viewBox="0 0 1080 1080" xml:space="preserve">
<desc>Created with Fabric.js 5.2.4</desc>
<defs>
</defs>
<g transform="matrix(1 0 0 1 540 540)" id="2d831029-7c52-4772-85d0-2cc7e614e5d8"  >
</g>
<g transform="matrix(1 0 0 1 540 540)" id="d6168086-9d48-4895-8a10-8bb75ebf5a68"  >
<rect style="stroke: none; stroke-width: 1; stroke-dasharray: none; stroke-linecap: butt; stroke-dashoffset: 0; stroke-linejoin: miter; stroke-miterlimit: 4; fill: rgb(255,255,255); fill-rule: nonzero; opacity: 1; visibility: hidden;" vector-effect="non-scaling-stroke"  x="-540" y="-540" rx="0" ry="0" width="1080" height="1080" />
</g>
<g transform="matrix(0 0 0 0 0 0)"  >
<g style=""   >
</g>
</g>
<g transform="matrix(1 0 0 1 540 540)"  >
<path style="stroke: rgb(0,0,0); stroke-width: 0; stroke-dasharray: none; stroke-linecap: butt; stroke-dashoffset: 0; stroke-linejoin: miter; stroke-miterlimit: 4; fill: rgb(251,150,56); fill-rule: nonzero; opacity: 1;" vector-effect="non-scaling-stroke"  transform=" translate(-288, -255.95)" d="M 333.5 201.4 C 333.5 179.3 317.9 167.10000000000002 290.5 167.10000000000002 L 240.1 167.10000000000002 L 240.1 238.3 L 282.6 238.3 C 315.4 238.2 333.5 225 333.5 201.4 z M 517 188.6 C 507.5 157.7 506.1 119.8 507.2 90.5 C 508.3 60 484.5 32 452.5 32 L 123.7 32 C 91.6 32 67.9 60.1 69 90.5 C 70 119.8 68.7 157.7 59.2 188.6 C 49.6 219.6 33.5 239.2 7 241.7 L 7 270.2 C 33.4 272.7 49.6 292.3 59.2 323.3 C 68.7 354.2 70.10000000000001 392.1 69 421.4 C 67.9 451.9 91.7 479.9 123.7 479.9 L 452.4 479.9 C 484.5 479.9 508.2 451.79999999999995 507.09999999999997 421.4 C 506.09999999999997 392.09999999999997 507.4 354.2 516.9 323.29999999999995 C 526.5 292.29999999999995 542.6 272.69999999999993 569 270.19999999999993 L 569 241.69999999999993 C 542.7 239.2 526.5 219.6 517 188.6 z M 300.2 375.1 L 202.29999999999998 375.1 L 202.29999999999998 136.8 L 299.7 136.8 C 343 136.8 371.4 160.20000000000002 371.4 196.20000000000002 C 371.4 221.50000000000003 352.29999999999995 244.10000000000002 327.9 248 L 327.9 249.3 C 361.09999999999997 252.9 383.4 275.90000000000003 383.4 307.6 C 383.4 349.7 352.1 375.1 300.2 375.1 z M 290.2 266.4 L 240.1 266.4 L 240.1 344.79999999999995 L 292.4 344.79999999999995 C 326.59999999999997 344.79999999999995 344.7 331.09999999999997 344.7 305.29999999999995 C 344.7 279.6 326.1 266.4 290.2 266.4 z" stroke-linecap="round" />
</g>
<g transform="matrix(0 0 0 0 0 0)"  >
<g style=""   >
</g>
</g>
<g transform="matrix(0 0 0 0 0 0)"  >
<g style=""   >
</g>
</g>
<g transform="matrix(0 0 0 0 0 0)"  >
<g style=""   >
</g>
</g>
<g transform="matrix(NaN NaN NaN NaN 0 0)"  >
<g style=""   >
</g>
</g>
<g transform="matrix(NaN NaN NaN NaN 0 0)"  >
<g style=""   >
</g>
</g>
</svg>

<?xml version="1.0" ?><svg viewBox="0 0 576 512" xmlns="http://www.w3.org/2000/svg"><path d="M333.5,201.4c0-22.1-15.6-34.3-43-34.3h-50.4v71.2h42.5C315.4,238.2,333.5,225,333.5,201.4z M517,188.6 c-9.5-30.9-10.9-68.8-9.8-98.1c1.1-30.5-22.7-58.5-54.7-58.5H123.7c-32.1,0-55.8,28.1-54.7,58.5c1,29.3-0.3,67.2-9.8,98.1 c-9.6,31-25.7,50.6-52.2,53.1v28.5c26.4,2.5,42.6,22.1,52.2,53.1c9.5,30.9,10.9,68.8,9.8,98.1c-1.1,30.5,22.7,58.5,54.7,58.5h328.7 c32.1,0,55.8-28.1,54.7-58.5c-1-29.3,0.3-67.2,9.8-98.1c9.6-31,25.7-50.6,52.1-53.1v-28.5C542.7,239.2,526.5,219.6,517,188.6z M300.2,375.1h-97.9V136.8h97.4c43.3,0,71.7,23.4,71.7,59.4c0,25.3-19.1,47.9-43.5,51.8v1.3c33.2,3.6,55.5,26.6,55.5,58.3 C383.4,349.7,352.1,375.1,300.2,375.1z M290.2,266.4h-50.1v78.4h52.3c34.2,0,52.3-13.7,52.3-39.5 C344.7,279.6,326.1,266.4,290.2,266.4z"/></svg>
